X: 20
T: 20. Tekeli
M: 6/8
L: 1/8
Q: 3/8=130
K: C
G | c2 c cBc | A2 c G2 c | GAB cde | f2 d B2 G |c2 c cBc | A2 c G2 c | GAB cde | fdB c3 :|!
c2 d [e3c3] | efe d2 c | {e}d2 c {e}d2 c | {e}d2 c {e}d2 e | c2 d [e3c3] | efe d2 c | d2 c d2 e | d3 c2 |]!

